svgs/microsoft_excel.svg

<svg xmlns="http://www.w3.org/2000/svg" viewBox="0 0 24 24"><path d="M8.07 3.05h9v4h-4.1A1.79 1.79 0 0 0 11.27 6H7.18A.15.15 0 0 1 7 5.8V4.09a1 1 0 0 1 1.07-1.04Zm5.01 5.01h3.95v3.44h-3.95zm0 4.44h3.95v3.44h-3.95zM13 17h4v3.94H8a1 1 0 0 1-1-1v-1.8a.15.15 0 0 1 .18-.14h4.23A1.68 1.68 0 0 0 13 17Zm9-12.91v15.76a1 1 0 0 1-1 1h-3V17h4v-1h-4v-3.5h4v-1h-4V8.06h4v-1h-4v-4h3a1 1 0 0 1 1 1.03ZM11.47 7H2.86a.87.87 0 0 0-.86.84v8.34a.86.86 0 0 0 .86.86h8.61a.6.6 0 0 0 .6-.6V7.57a.6.6 0 0 0-.6-.57Zm-3.29 7.79L7 12.56l-1.2 2.23H4.54L6.27 12l-1.6-2.79H6l1.07 2 1.2-2h1.17L7.77 12l1.76 2.78Z"/></svg>

<svg id="vector" xmlns="http://www.w3.org/2000/svg" width="24" height="24" viewBox="0 0 24 24"><path fill="#FF000000" d="M8.07,3.05h9v4h-4.1A1.79,1.79 0,0 0,11.27 6H7.18A0.15,0.15 0,0 1,7 5.8V4.09A1,1 0,0 1,8.07 3.05Z" id="path_0"/><path fill="#FF000000" d="M13.08,8.06h3.95v3.44h-3.95z" id="path_1"/><path fill="#FF000000" d="M13.08,12.5h3.95v3.44h-3.95z" id="path_2"/><path fill="#FF000000" d="M13,17H17v3.94h-9a1,1 0,0 1,-1 -1V18.14A0.15,0.15 0,0 1,7.18 18h4.23A1.68,1.68 0,0 0,13 17Z" id="path_3"/><path fill="#FF000000" d="M22,4.09V19.85a1,1 0,0 1,-1 1H18V17H22v-1H18V12.5H22v-1H18V8.06H22v-1H18v-4H21A1,1 0,0 1,22 4.09Z" id="path_4"/><path fill="#FF000000" d="M11.47,7H2.86A0.87,0.87 0,0 0,2 7.84v8.34a0.86,0.86 0,0 0,0.86 0.86h8.61a0.6,0.6 0,0 0,0.6 -0.6V7.57A0.6,0.6 0,0 0,11.47 7ZM8.18,14.79 L7,12.56 5.8,14.79H4.54L6.27,12 4.67,9.21H6l1.07,2 1.2,-2H9.44L7.77,12l1.76,2.78Z" id="path_5"/></svg>
